src/main/resources/icons/AllIcons/toolwindows/toolWindowDebugger.svg

<!-- Copyright 2000-2021 JetBrains s.r.o. Use of this source code is governed by the Apache 2.0 license that can be found in the LICENSE file. -->
<svg xmlns="http://www.w3.org/2000/svg" width="13" height="13" viewBox="0 0 13 13">
  <path fill="#6E6E6E" fill-rule="evenodd" d="M10.1897549,8.03038467 L11.5028572,8.03038467 L11.5028572,6.6838462 L10.1897549,6.6838462 L10.1897549,5.78615389 C10.1897549,5.6326485 10.1624743,5.48632465 10.143378,5.33730773 L11.5028572,5.33730773 L11.5028572,3.99076926 L9.68142785,3.99076926 C9.32132499,3.38303156 8.7902642,2.89109618 8.14917199,2.57780156 L9.39043564,1.35245155 L8.42561459,0.400000006 L6.60145708,2.20885008 C6.58417942,2.20795239 6.51870627,2.20077079 6.5014286,2.20077079 C6.45323302,2.20077079 6.45868912,2.20795233 6.41049354,2.20974771 L4.57724262,0.400000006 L3.61242157,1.35245155 L4.89005924,2.61281156 C4.27806625,2.92790156 3.77064859,3.40457618 3.42327664,3.99076926 L1.5,3.99076926 L1.5,5.33730773 L2.9613265,5.33730773 C2.94223014,5.48632465 2.91494962,5.6326485 2.91494962,5.78615389 L2.91494962,6.6838462 L1.5,6.6838462 L1.5,8.03038467 L2.91494962,8.03038467 L2.91494962,8.47923083 C2.91494962,8.79073006 2.96860131,9.08786622 3.04498676,9.37692314 L1.5,9.37692314 L1.5,10.7234616 L3.73973066,10.7234616 C4.40719404,11.5367708 5.41475457,12.0700001 6.55235224,12.0700001 C7.68994991,12.0700001 8.69751044,11.5367708 9.36497382,10.7234616 L11.5028572,10.7234616 L11.5028572,9.37692314 L10.0597177,9.37692314 C10.1361032,9.08786622 10.1897549,8.79073006 10.1897549,8.47923083 L10.1897549,8.03038467 Z"/>
</svg>

<svg xmlns="http://www.w3.org/2000/svg" width="13" height="13" viewBox="0 0 13 13"><rect id="frame" width="13" height="13" fill="none"/><path fill="#6E6E6E" fill-rule="evenodd" d="M10.19 8.03h1.313V6.684H10.19v-.898c0-.153-.028-.3-.047-.449h1.36V3.991H9.68A3.635 3.635 0 0 0 8.15 2.578L9.39 1.352 8.426.4 6.6 2.209c-.017-.001-.082-.008-.1-.008-.048 0-.042.007-.09.009L4.576.4l-.965.952 1.278 1.26a3.635 3.635 0 0 0-1.467 1.379H1.5v1.346h1.461c-.019.15-.046.296-.046.45v.897H1.5V8.03h1.415v.45c0 .31.054.608.13.897H1.5v1.346h2.24a3.635 3.635 0 0 0 2.812 1.347 3.635 3.635 0 0 0 2.813-1.347h2.138V9.377H10.06c.076-.29.13-.586.13-.898V8.03z"/></svg>
